X: 20925
T: Jota Rodrigo Encinas
R: waltz
M: 3/4
K: Dmajor
A2 d2|:fg fe dc|d2 A2 e2|ga gf ed|c2 A2 A2|
ga gf ed|cB cd eg|fg ef d2|
z2 A2 d2|fg fe dc|d2 A2 e2|ga gf ed|c2 A2 A2|
ga gf ed|cd ef gc|1 d4 A2|d2 A2 d2:|2 d2 dd d2|d2 z4||
ef de cd|Bc AB GA|(3BcB AG F2-|F6|
fg ef de|cd Bc AB|(3BcB AB c2-|c6|
ef de cd|Bc AB GA|(3BcB AG F2-|F6|
|:(3FGA Bc de|fg ab c'd'|c'd' c'b a2-|ab c'2 a2|
[1 bc' ba g2-|ga b2 g2|ab ag f2-|f6:|
[2 bc' ba g2-|gf e2 c2|d2 dd d2|d2||

